dist/assets/img/solution-1.svg

<svg width="167" height="176" viewBox="0 0 167 176" fill="none" xmlns="http://www.w3.org/2000/svg">
<path d="M63.8542 129.491C63.634 129.491 63.3954 129.394 63.2486 129.218C63.0283 128.963 62.9549 128.592 63.0834 128.279L89.6749 59.8149C89.7484 59.6389 89.8585 59.502 90.0053 59.4042L126.562 34.4513C126.819 34.2753 127.149 34.2558 127.424 34.4318C127.7 34.5882 127.865 34.9011 127.846 35.2336L126.268 106.729C126.268 107.1 126.03 107.433 125.699 107.55L64.1478 129.472C64.0377 129.491 63.9459 129.491 63.8542 129.491ZM91.1064 60.734L65.3223 127.145L124.598 106.044L126.121 36.8371L91.1064 60.734Z" fill="white"/>
<path d="M62.5879 175.427H62.5696C62.1108 175.408 61.7437 174.997 61.7621 174.508L63.01 128.983L31.3167 96.8727C31.1699 96.7162 31.0781 96.5207 31.0598 96.3056L25.5176 29.0345C25.4992 28.7216 25.6277 28.4087 25.8663 28.2327C26.1048 28.0567 26.4168 28.0176 26.6921 28.1545L90.776 59.3456C91.1981 59.5411 91.3816 60.0887 91.1798 60.5189C90.9963 60.9687 90.4824 61.1642 90.0787 60.9491L27.316 30.3838L32.6931 95.8167L64.4231 127.966C64.5882 128.142 64.6984 128.377 64.68 128.631L63.4137 174.547C63.4137 175.036 63.0467 175.427 62.5879 175.427Z" fill="white"/>
<path d="M123.46 167.664C123.46 167.664 123.442 167.664 123.424 167.664C122.965 167.644 122.598 167.234 122.616 166.745L124.561 106.65C124.58 106.279 124.8 105.966 125.112 105.849L160.09 92.414C160.531 92.238 161.008 92.4922 161.155 92.942C161.32 93.4113 161.081 93.9198 160.659 94.0762L126.213 107.296L124.286 166.784C124.286 167.292 123.919 167.664 123.46 167.664Z" fill="white"/>
<path d="M136.747 19.2762C136.747 19.2762 136.729 19.2762 136.71 19.2762L87.069 17.3598C86.9773 17.3598 86.8671 17.3402 86.7754 17.2816L56.5502 3.6709C56.1281 3.47534 55.9263 2.9669 56.1098 2.49757C56.2933 2.04779 56.7888 1.83267 57.2109 2.02823L87.2892 15.5607L136.765 17.4576C137.224 17.4771 137.591 17.8878 137.573 18.3767C137.573 18.8851 137.206 19.2762 136.747 19.2762Z" fill="white"/>
<path d="M142.766 73.5625C142.454 73.5625 142.142 73.3669 142.014 73.0344L126.378 35.8593L87.0323 17.3989L26.5086 29.8167C26.1232 29.8753 25.7194 29.6602 25.5726 29.2691L20.6727 16.1278C20.5076 15.678 20.7094 15.15 21.1315 14.974C21.5536 14.798 22.0491 15.0131 22.2143 15.4629L26.8756 27.9393L86.9589 15.5998C87.1241 15.5607 87.2892 15.5802 87.4544 15.6585L127.333 34.3731C127.516 34.4513 127.681 34.6273 127.755 34.8229L143.519 72.3109C143.702 72.7607 143.519 73.2887 143.097 73.4842C143.005 73.5429 142.876 73.5625 142.766 73.5625Z" fill="white"/>
<path d="M62.5879 175.427C62.331 175.427 62.0924 175.31 61.9273 175.075L27.7565 127.77L13.7175 126.46C13.3137 126.421 13.0018 126.089 12.9651 125.678L7.42285 72.4478C7.42285 72.4282 7.42285 72.4087 7.42285 72.3891C7.42285 72.3109 7.42286 72.2327 7.45956 72.1349L20.636 15.5998C20.7095 15.3065 20.9113 15.0718 21.1682 14.974L56.6236 2.04779C56.7337 2.00868 56.8438 1.98913 56.954 2.00868L96.8321 4.92246L137.004 17.5554C137.316 17.6531 137.554 17.9465 137.591 18.2985L143.574 72.3109L161.008 92.6682C161.155 92.8442 161.228 93.0593 161.228 93.294L160.164 134.322C160.164 134.576 160.054 134.81 159.87 134.967L123.993 167.449C123.864 167.566 123.717 167.625 123.552 167.664L62.6797 175.427C62.6613 175.427 62.6246 175.427 62.5879 175.427ZM29.0778 126.675L62.9733 173.589L123.13 165.923L158.53 133.872L159.558 93.5873L142.161 73.2887C142.051 73.1518 141.977 72.9758 141.94 72.7998L135.995 19.0807L96.5385 6.6629L57.009 3.76868L22.1409 16.4798L9.18461 72.0567L32.4545 95.582C32.6564 95.7776 32.7481 96.0514 32.7114 96.3447L29.0778 126.675ZM14.5433 124.759L27.4629 125.971L31.0047 96.5793L9.33142 74.6771L14.5433 124.759Z" fill="white"/>
<path d="M63.2119 152.332C63.0651 152.332 62.9366 152.254 62.8448 152.117L31.5186 96.462C31.4085 96.2665 31.4635 95.9927 31.647 95.8558C31.8306 95.7189 32.0691 95.758 32.2159 95.9536L63.8542 140.482C64.001 140.677 63.9643 140.951 63.7808 141.107C63.5973 141.264 63.3403 141.225 63.1935 141.029L36.235 103.072L63.5789 151.648C63.689 151.863 63.634 152.137 63.4321 152.254C63.3587 152.313 63.2853 152.332 63.2119 152.332Z" fill="white"/>
<path d="M54.2746 163.479C54.1095 163.479 53.9443 163.362 53.8892 163.186L31.5002 96.3838C31.4268 96.1687 31.5186 95.9145 31.7204 95.8167C31.9223 95.7189 32.1609 95.8167 32.2526 96.0318L63.3036 161.954C63.4137 162.169 63.322 162.442 63.1201 162.54C62.9182 162.658 62.6613 162.56 62.5512 162.345L34.5833 102.954L54.6784 162.892C54.7518 163.127 54.6417 163.381 54.4214 163.459C54.3847 163.479 54.3297 163.479 54.2746 163.479Z" fill="white"/>
<path d="M43.0801 147.971C42.8966 147.971 42.7131 147.834 42.6764 147.619L32.5463 101.194L34.1612 134.556C34.1796 134.81 33.996 135.006 33.7575 135.026C33.5189 135.006 33.3354 134.85 33.317 134.595L31.4635 96.2273C31.4452 95.9927 31.6103 95.7971 31.8306 95.758C32.0141 95.7385 32.2526 95.8753 32.2894 96.0905L43.4839 147.385C43.5389 147.619 43.3921 147.874 43.1719 147.913C43.1535 147.971 43.1168 147.971 43.0801 147.971Z" fill="white"/>
<path d="M63.8542 129.061C63.7257 129.061 63.6156 129.002 63.5238 128.905C63.377 128.729 63.3954 128.455 63.5606 128.298L125.956 68.5953C126.121 68.4389 126.397 68.4389 126.543 68.6345C126.69 68.8105 126.69 69.1038 126.507 69.2602L69.9102 123.429L125.718 80.5634C125.901 80.4069 126.158 80.4656 126.305 80.6611C126.433 80.8567 126.397 81.1305 126.213 81.2869L64.0744 129.002C64.0193 129.022 63.9459 129.061 63.8542 129.061Z" fill="white"/>
<path d="M64.8085 128.553C64.6617 128.553 64.5148 128.455 64.4414 128.298C64.3497 128.083 64.4231 127.829 64.6066 127.712L125.552 91.1233C125.754 91.006 126.011 91.0842 126.121 91.2993C126.231 91.5145 126.158 91.7882 125.956 91.9056L73.3053 123.527L125.424 98.3589C125.644 98.2611 125.883 98.3589 125.975 98.574C126.066 98.7891 125.975 99.0629 125.773 99.1607L64.992 128.514C64.9186 128.533 64.8635 128.553 64.8085 128.553Z" fill="white"/>
<path d="M105.861 88.8745C105.806 88.8745 105.751 88.8549 105.696 88.8353C105.476 88.7376 105.384 88.4834 105.476 88.2487L126.617 35.0185C126.709 34.8033 126.929 34.7056 127.131 34.7642C127.333 34.8424 127.461 35.0771 127.406 35.2922L116.854 78.3927C116.799 78.6273 116.578 78.7838 116.34 78.7056C116.12 78.6469 115.991 78.3927 116.046 78.158L125.149 40.9829L106.246 88.5811C106.173 88.7571 106.026 88.8745 105.861 88.8745Z" fill="white"/>
<path d="M77.5812 115.92C77.5078 115.92 77.416 115.9 77.3426 115.842C77.1591 115.705 77.1041 115.431 77.2142 115.216L126.617 34.9402C126.745 34.7447 126.984 34.686 127.186 34.8033C127.388 34.9207 127.443 35.1945 127.333 35.39L94.7767 99.5518C94.6666 99.7669 94.4097 99.8451 94.2078 99.7278C94.0059 99.6105 93.9325 99.3367 94.0426 99.1216L121.919 44.19L77.9115 115.705C77.8565 115.842 77.728 115.92 77.5812 115.92Z" fill="white"/>
<path d="M63.8542 129.061C63.7808 129.061 63.7074 129.042 63.634 129.002C63.4321 128.866 63.377 128.592 63.5055 128.396L108.504 51.4451L78.6089 91.8078C78.4621 92.0034 78.2052 92.0425 78.0217 91.886C77.8381 91.7296 77.8014 91.4558 77.9482 91.2602L112.504 44.6202C112.651 44.4247 112.89 44.4051 113.073 44.5225C113.257 44.6594 113.312 44.9136 113.183 45.1287L64.2212 128.866C64.1295 128.983 64.001 129.061 63.8542 129.061Z" fill="white"/>
<path d="M105.861 69.9838C105.824 69.9838 105.788 69.9838 105.733 69.9642C105.512 69.886 105.384 69.6514 105.457 69.4167L112.413 44.7376C112.468 44.542 112.651 44.3856 112.853 44.4247C113.055 44.4442 113.202 44.6202 113.22 44.8353L114.156 56.6665C114.174 56.9207 114.009 57.1358 113.771 57.1554C113.514 57.1945 113.33 56.9989 113.312 56.7447L112.578 47.2211L106.246 69.6514C106.21 69.8665 106.026 69.9838 105.861 69.9838Z" fill="white"/>
<path d="M118.983 48.6487C118.909 48.6487 118.854 48.6291 118.799 48.6096L112.633 45.2656C112.486 45.1873 112.394 45.0113 112.413 44.8353C112.431 44.6593 112.541 44.5029 112.706 44.4442L123.038 41.022C123.258 40.9438 123.497 41.0807 123.552 41.3154C123.625 41.55 123.497 41.8042 123.277 41.8629L113.936 44.9722L119.184 47.8273C119.386 47.9447 119.478 48.1989 119.368 48.4336C119.276 48.5705 119.129 48.6487 118.983 48.6487Z" fill="white"/>
<path d="M85.3073 73.7971C85.1972 73.7971 85.087 73.758 85.0136 73.6602C84.8485 73.4842 84.8485 73.2105 85.0136 73.0345L112.523 44.542C112.688 44.366 112.945 44.366 113.11 44.542C113.275 44.718 113.275 44.9918 113.11 45.1678L85.6009 73.6602C85.5275 73.758 85.4174 73.7971 85.3073 73.7971Z" fill="white"/>
<path d="M159.338 134.732C159.191 134.732 159.026 134.634 158.971 134.478L143.06 99.9625C142.95 99.7474 143.042 99.4736 143.243 99.3758C143.445 99.278 143.702 99.3562 143.794 99.5713L158.163 130.723L151.043 96.7749C150.988 96.5402 151.135 96.3056 151.355 96.2469C151.575 96.1882 151.795 96.3447 151.85 96.5793L159.742 134.185C159.797 134.4 159.668 134.634 159.466 134.693C159.43 134.732 159.375 134.732 159.338 134.732Z" fill="white"/>
<path d="M159.338 134.732C159.246 134.732 159.154 134.693 159.081 134.634L126.745 106.435C126.562 106.279 126.543 106.005 126.69 105.81C126.837 105.614 127.094 105.594 127.277 105.751L156.475 131.232L135.205 103.091C135.059 102.896 135.095 102.622 135.26 102.466C135.444 102.309 135.701 102.348 135.848 102.524L159.65 134.009C159.778 134.185 159.778 134.439 159.613 134.595C159.54 134.693 159.448 134.732 159.338 134.732Z" fill="white"/>
<path d="M159.338 134.732C159.301 134.732 159.264 134.732 159.228 134.713L124.727 125.306C124.506 125.248 124.36 124.994 124.433 124.759C124.488 124.524 124.708 124.368 124.947 124.446L155.888 132.874L124.947 115.881C124.745 115.763 124.653 115.509 124.763 115.274C124.873 115.059 125.13 114.962 125.332 115.079L159.54 133.872C159.723 133.97 159.815 134.204 159.742 134.419C159.668 134.615 159.503 134.732 159.338 134.732Z" fill="white"/>
<path d="M124.231 143.61C124.048 143.61 123.864 143.474 123.827 143.278C123.772 143.043 123.919 142.789 124.139 142.75L156.071 134.674L124.543 133.97C124.305 133.97 124.121 133.754 124.139 133.52C124.139 133.266 124.378 133.05 124.561 133.09L159.356 133.872C159.558 133.872 159.742 134.048 159.76 134.263C159.778 134.478 159.65 134.693 159.448 134.752L124.341 143.63C124.286 143.61 124.268 143.61 124.231 143.61Z" fill="white"/>
<path d="M123.901 153.623C123.754 153.623 123.607 153.525 123.534 153.369C123.424 153.154 123.515 152.88 123.717 152.782L159.154 133.891C159.356 133.774 159.613 133.872 159.705 134.087C159.815 134.302 159.723 134.576 159.521 134.674L124.084 153.564C124.029 153.603 123.974 153.623 123.901 153.623Z" fill="white"/>
<path d="M138.802 35.566C138.362 35.566 134.6 34.1971 86.9956 16.8905C86.7937 16.8122 86.6653 16.5776 86.7203 16.3429C86.7754 16.1082 86.9773 15.9714 87.1975 16.03L137.811 26.8247C138.032 26.8638 138.178 27.0985 138.142 27.3527C138.105 27.5873 137.885 27.7633 137.646 27.7047L93.2535 18.2398C106.779 23.1482 138.38 34.6469 138.729 34.7642L138.6 35.1749L138.839 35.5465C138.839 35.566 138.839 35.566 138.802 35.566Z" fill="white"/>
<path d="M139.683 45.3047C139.61 45.3047 139.536 45.2851 139.481 45.246L127.92 38.2647C127.718 38.1473 127.645 37.8736 127.755 37.6585C127.865 37.4433 128.122 37.3651 128.324 37.4824L139.885 44.4638C140.087 44.5811 140.16 44.8549 140.05 45.07C139.977 45.2265 139.83 45.3047 139.683 45.3047Z" fill="white"/>
<path d="M140.949 56.6665C140.839 56.6665 140.748 56.6273 140.656 56.5491L131.627 47.2016C131.462 47.0256 131.462 46.7518 131.627 46.5758C131.792 46.3998 132.049 46.3998 132.214 46.5758L141.243 55.9233C141.408 56.0993 141.408 56.3731 141.243 56.5491C141.17 56.6273 141.06 56.6665 140.949 56.6665Z" fill="white"/>
</svg>

<svg width="167" height="176" fill="none" xmlns="http://www.w3.org/2000/svg"><path d="M63.854 129.491a.807.807 0 01-.605-.273.923.923 0 01-.166-.939l26.592-68.464a.892.892 0 01.33-.41l36.557-24.954a.77.77 0 01.862-.02c.276.157.441.47.422.803l-1.578 71.495a.876.876 0 01-.569.821l-61.551 21.922c-.11.019-.202.019-.294.019zm27.252-68.757l-25.784 66.411 59.276-21.101 1.523-69.207-35.015 23.897z" fill="#fff"/><path d="M62.588 175.427h-.018c-.46-.019-.826-.43-.808-.919l1.248-45.525-31.693-32.11a.941.941 0 01-.257-.567l-5.542-67.271c-.019-.313.11-.626.348-.802a.787.787 0 01.826-.079l64.084 31.192c.422.195.606.743.404 1.173-.184.45-.698.645-1.101.43L27.316 30.384l5.377 65.433 31.73 32.149a.887.887 0 01.257.665l-1.266 45.916c0 .489-.367.88-.826.88zm60.872-7.763h-.036c-.459-.02-.826-.43-.808-.919l1.945-60.095c.019-.371.239-.684.551-.801l34.978-13.435c.441-.176.918.078 1.065.528.165.47-.074.978-.496 1.134l-34.446 13.22-1.927 59.488c0 .508-.367.88-.826.88zm13.287-148.388h-.037L87.069 17.36a.553.553 0 01-.294-.078L56.55 3.67c-.422-.196-.624-.704-.44-1.173.183-.45.679-.665 1.1-.47L87.29 15.56l49.475 1.897c.459.02.826.43.808.919 0 .508-.367.9-.826.9z" fill="#fff"/><path d="M142.766 73.563a.815.815 0 01-.752-.529L126.378 35.86 87.032 17.4 26.51 29.817a.866.866 0 01-.936-.548l-4.9-13.141c-.165-.45.036-.978.459-1.154a.823.823 0 011.082.489l4.662 12.476L86.959 15.6a.735.735 0 01.495.06l39.879 18.714a.823.823 0 01.422.45l15.764 37.488c.183.45 0 .978-.422 1.173a.64.64 0 01-.331.079z" fill="#fff"/><path d="M62.588 175.427a.792.792 0 01-.66-.352L27.756 127.77l-14.04-1.31a.85.85 0 01-.752-.782l-5.542-53.23v-.059c0-.078 0-.156.037-.254L20.636 15.6a.894.894 0 01.532-.626L56.624 2.048c.11-.04.22-.059.33-.04l39.878 2.914 40.172 12.633a.87.87 0 01.587.744l5.983 54.012 17.434 20.357c.147.176.22.391.22.626l-1.064 41.028c0 .254-.11.488-.294.645l-35.877 32.482a.95.95 0 01-.441.215l-60.872 7.763h-.092zm-33.51-48.752l33.895 46.914 60.157-7.666 35.4-32.051 1.028-40.285-17.397-20.298a1.177 1.177 0 01-.221-.49l-5.945-53.718L96.538 6.663 57.01 3.769l-34.868 12.71L9.185 72.058l23.27 23.525a.89.89 0 01.256.763l-3.633 30.33zm-14.535-1.916l12.92 1.212 3.542-29.392L9.33 74.677l5.212 50.082z" fill="#fff"/><path d="M63.212 152.332a.44.44 0 01-.367-.215L31.519 96.462a.484.484 0 01.128-.606c.184-.137.422-.098.569.098l31.638 44.528a.46.46 0 01-.073.625c-.184.157-.44.118-.587-.078l-26.959-37.957 27.344 48.576c.11.215.055.489-.147.606a.336.336 0 01-.22.078z" fill="#fff"/><path d="M54.275 163.479a.416.416 0 01-.386-.293L31.5 96.384c-.073-.215.019-.47.22-.567.202-.098.44 0 .533.215l31.05 65.922a.44.44 0 01-.183.586c-.202.118-.459.02-.569-.195l-27.968-59.391 20.095 59.938c.074.235-.036.489-.257.567-.036.02-.091.02-.146.02z" fill="#fff"/><path d="M43.08 147.971a.418.418 0 01-.404-.352l-10.13-46.425 1.615 33.362a.433.433 0 01-.404.47c-.238-.02-.422-.176-.44-.431l-1.854-38.368a.442.442 0 01.368-.469c.183-.02.422.117.458.333l11.195 51.294c.055.234-.092.489-.312.528-.018.058-.055.058-.092.058zm20.774-18.91a.45.45 0 01-.33-.156.453.453 0 01.037-.607l62.395-59.703c.165-.156.441-.156.587.04.147.175.147.469-.036.625L69.91 123.43l55.808-42.866c.183-.156.44-.097.587.098a.483.483 0 01-.092.626l-62.139 47.715c-.055.02-.128.059-.22.059z" fill="#fff"/><path d="M64.808 128.553a.421.421 0 01-.367-.255.478.478 0 01.166-.586l60.945-36.589a.408.408 0 01.569.176.464.464 0 01-.165.607l-52.65 31.621 52.118-25.168c.22-.098.459 0 .551.215.091.215 0 .489-.202.587l-60.781 29.353c-.073.019-.129.039-.184.039zm41.053-39.679c-.055 0-.11-.02-.165-.039-.22-.097-.312-.352-.22-.586l21.141-53.23a.428.428 0 01.514-.255.46.46 0 01.275.528l-10.552 43.1c-.055.235-.276.392-.514.314-.22-.06-.349-.313-.294-.548l9.103-37.175-18.903 47.598c-.073.176-.22.293-.385.293z" fill="#fff"/><path d="M77.581 115.92a.39.39 0 01-.238-.078.506.506 0 01-.129-.626l49.403-80.276a.415.415 0 01.569-.137c.202.118.257.392.147.587L94.777 99.552a.408.408 0 01-.57.176.464.464 0 01-.164-.606l27.876-54.932-44.007 71.515a.345.345 0 01-.33.215zm-13.727 13.141a.455.455 0 01-.22-.059.444.444 0 01-.129-.606l44.999-76.95-29.895 40.362c-.147.195-.404.234-.587.078a.46.46 0 01-.074-.626l34.556-46.64a.412.412 0 01.569-.097.453.453 0 01.11.606l-48.962 83.737a.47.47 0 01-.367.195z" fill="#fff"/><path d="M105.861 69.984c-.037 0-.073 0-.128-.02a.439.439 0 01-.276-.547l6.956-24.68c.055-.195.238-.351.44-.312.202.02.349.195.367.41l.936 11.831c.018.255-.147.47-.385.49-.257.038-.441-.157-.459-.411l-.734-9.524-6.332 22.43a.394.394 0 01-.385.333z" fill="#fff"/><path d="M118.983 48.649a.504.504 0 01-.184-.04l-6.166-3.343a.44.44 0 01-.22-.43.459.459 0 01.293-.392l10.332-3.422a.396.396 0 01.514.293c.073.235-.055.49-.275.548l-9.341 3.11 5.248 2.854a.464.464 0 01.184.607.471.471 0 01-.385.215z" fill="#fff"/><path d="M85.307 73.797a.353.353 0 01-.293-.137.457.457 0 010-.626l27.509-28.492a.392.392 0 01.587 0 .457.457 0 010 .626L85.6 73.66a.355.355 0 01-.293.137zm74.031 60.935a.401.401 0 01-.367-.254L143.06 99.962a.441.441 0 01.183-.586.406.406 0 01.551.195l14.369 31.152-7.12-33.948a.445.445 0 01.312-.528c.22-.059.44.098.495.332l7.892 37.606a.427.427 0 01-.276.508c-.036.039-.091.039-.128.039z" fill="#fff"/><path d="M159.338 134.732a.419.419 0 01-.257-.098l-32.336-28.199a.457.457 0 01-.055-.625.393.393 0 01.587-.059l29.198 25.481-21.27-28.141a.478.478 0 01.055-.625.41.41 0 01.588.058l23.802 31.485c.128.176.128.43-.037.586a.321.321 0 01-.275.137z" fill="#fff"/><path d="M159.338 134.732c-.037 0-.074 0-.11-.019l-34.501-9.407a.44.44 0 01-.294-.547c.055-.235.275-.391.514-.313l30.941 8.428-30.941-16.993a.465.465 0 01-.184-.607c.11-.215.367-.312.569-.195l34.208 18.793a.456.456 0 01.202.547c-.074.196-.239.313-.404.313z" fill="#fff"/><path d="M124.231 143.61a.42.42 0 01-.404-.332c-.055-.235.092-.489.312-.528l31.932-8.076-31.528-.704a.417.417 0 01-.404-.45c0-.254.239-.47.422-.43l34.795.782c.202 0 .386.176.404.391.018.215-.11.43-.312.489l-35.107 8.878c-.055-.02-.073-.02-.11-.02z" fill="#fff"/><path d="M123.901 153.623a.42.42 0 01-.367-.254c-.11-.215-.019-.489.183-.587l35.437-18.891a.392.392 0 01.551.196.441.441 0 01-.184.587l-35.437 18.89a.297.297 0 01-.183.059zm14.901-118.057c-.44 0-4.202-1.369-51.806-18.676a.474.474 0 01-.276-.547c.055-.235.257-.372.478-.313l50.613 10.795c.221.039.367.274.331.528-.037.234-.257.41-.496.352L93.254 18.24c13.525 4.908 45.126 16.407 45.475 16.524l-.129.41.239.373c0 .019 0 .019-.037.019zm.881 9.739a.354.354 0 01-.202-.059l-11.561-6.981a.464.464 0 01-.165-.607.408.408 0 01.569-.176l11.561 6.982a.464.464 0 01.165.606.4.4 0 01-.367.235zm1.266 11.361a.433.433 0 01-.293-.117l-9.029-9.347a.457.457 0 010-.626.392.392 0 01.587 0l9.029 9.347a.457.457 0 010 .626.401.401 0 01-.294.117z" fill="#fff"/></svg>
